IMG/flor.svg

<?xml version="1.0" encoding="UTF-8"?><svg id="Capa_1" xmlns="http://www.w3.org/2000/svg" viewBox="0 0 194.06 191.13"><defs><style>.cls-1{fill:#fff;}</style></defs><path class="cls-1" d="M177.43,80.19c7.56-13.3,6.77-30.4-3.35-43.09-10.12-12.69-26.62-17.26-41.26-12.85C127.13,10.04,113.27,0,97.04,0s-30.09,10.04-35.78,24.25c-14.65-4.41-31.14,.16-41.26,12.85-10.12,12.69-10.91,29.79-3.35,43.09C4.07,88.89-2.64,104.64,.97,120.46c3.61,15.82,16.49,27.1,31.6,29.48-1.04,15.26,7.09,30.33,21.71,37.37,14.62,7.04,31.47,4.01,42.75-6.32,11.28,10.33,28.13,13.37,42.75,6.32,14.62-7.04,22.75-22.11,21.71-37.37,15.11-2.38,27.99-13.66,31.6-29.48s-3.1-31.57-15.68-40.27h.02Zm-69.27-4.74c1.37,3.41,3.23,6.69,5.65,9.72,2.41,3.02,5.19,5.57,8.22,7.67-1.82,3.2-3.22,6.7-4.08,10.47-.86,3.77-1.12,7.53-.87,11.2-3.63,.57-7.24,1.66-10.73,3.34-3.48,1.68-6.59,3.82-9.3,6.3-2.71-2.48-5.82-4.63-9.3-6.3-3.48-1.68-7.1-2.77-10.73-3.34,.25-3.67,0-7.43-.87-11.2-.86-3.77-2.26-7.27-4.08-10.47,3.02-2.09,5.81-4.64,8.22-7.67,2.41-3.02,4.28-6.3,5.65-9.72,3.52,1.06,7.25,1.64,11.12,1.64s7.59-.58,11.12-1.64h-.02Z"/></svg>

<svg width="195" height="192" viewBox="0 0 195 192" fill="none" xmlns="http://www.w3.org/2000/svg">
<g clip-path="url(#clip0_1_3)">
<path d="M177.43 80.19C184.99 66.89 184.2 49.79 174.08 37.1C163.96 24.41 147.46 19.84 132.82 24.25C127.13 10.04 113.27 0 97.04 0C80.81 0 66.95 10.04 61.26 24.25C46.61 19.84 30.12 24.41 20 37.1C9.87999 49.79 9.08999 66.89 16.65 80.19C4.06999 88.89 -2.64001 104.64 0.969988 120.46C4.57999 136.28 17.46 147.56 32.57 149.94C31.53 165.2 39.66 180.27 54.28 187.31C68.9 194.35 85.75 191.32 97.03 180.99C108.31 191.32 125.16 194.36 139.78 187.31C154.4 180.27 162.53 165.2 161.49 149.94C176.6 147.56 189.48 136.28 193.09 120.46C196.7 104.64 189.99 88.89 177.41 80.19H177.43ZM108.16 75.45C109.53 78.86 111.39 82.14 113.81 85.17C116.22 88.19 119 90.74 122.03 92.84C120.21 96.04 118.81 99.54 117.95 103.31C117.09 107.08 116.83 110.84 117.08 114.51C113.45 115.08 109.84 116.17 106.35 117.85C102.87 119.53 99.76 121.67 97.05 124.15C94.34 121.67 91.23 119.52 87.75 117.85C84.27 116.17 80.65 115.08 77.02 114.51C77.27 110.84 77.01 107.08 76.15 103.31C75.29 99.54 73.89 96.04 72.07 92.84C75.09 90.75 77.88 88.2 80.29 85.17C82.7 82.15 84.57 78.87 85.94 75.45C89.46 76.51 93.19 77.09 97.06 77.09C100.93 77.09 104.65 76.51 108.18 75.45H108.16Z" fill="#272525"/>
</g>
<defs>
<clipPath id="clip0_1_3">
<rect width="194.08" height="191.13" fill="white"/>
</clipPath>
</defs>
</svg>
